X: 10661
M: C|
L: 1/8
K: D
uA,2 |\
d2df (ec)ac | (Bc)dB (AF)DF | G2BG (FA)dB | AGFE D2 :|
|: ug2 |\
(fd)af (ec)Ac | d2fd (cA)FA | BGBd Adfa | (gf)ed (dc)BA |\
d2df (ec)ac | (Bc)dB (AF)DF | G2BG (FA)dB | AGFE D2 :|


